!!!COM: Bach, Johann Sebastian
!!!OPR: Joh. Seb. Bachs vierstimmige Choralgesänge
!!!XEN: Four-part Chorales
!!!OTL: 157. Sei gegrüsset, Jesu gütig
!!!SCT: BWV 410
!!!SCA: Thematisch-systematisches Verzeichnis der musikalischen Werke Johann Sebastian Bach: Bach-Werke-Verzeichnis (Schmieder)
!!!YOR: Bach Gesellschaft Edition xxxix
!!!ENC: Steven Rasmussen
!!!CDT: 1685/3//-1750/7/28/
!!!OCY: Deutschland
!!!YEC: Copyright (c) 1994, 2000 Center for Computer Assisted Research in the Humanities
!!!YEM: Rights to all derivative editions reserved
!!!YEN: United States of America
**kern	**silbe	**kern	**kern	**kern
*I:[SOPRANO]	*I:[SOPRANO]	*I:[ALTO]	*I:[TENORE]	*I:[BASSO]
*clefG2	*	*clefG2	*clefGv2	*clefF4
*k[b-e-]	*	*k[b-e-]	*k[b-e-]	*k[b-e-]
*g:	*	*g:	*g:	*g:
*M4/4	*	*M4/4	*M4/4	*M4/4
=1-	=1-	=1-	=1-	=1-
4g	Sei	4d	4B-	4G
4a	ge-	4d	4A	4F#
4b-	-grÃ¼-	4d	8AL	4.G
.	.	.	16GL	.
.	.	.	16F#JJ	.
4b-	-sset,	4d	4G	.
.	.	.	.	8Fn
=2	=2	=2	=2	=2
4cc	Je-	8gL	8GL	4E-
.	.	8f#J	8AJ	.
4b-	-su	4g	8B-L	8DL
.	.	.	8GJ	8CJ
4a	gÃ¼-	4g	4d	4D
4a;	-tig,	4f#;	4d;	4D;
=3	=3	=3	=3	=3
4b-	Ã¼-	4g	4d	4G
4cc	-ber	4f	4c	4A
4dd	al-	4f	8cL	4.B-
.	.	.	16B-L	.
.	.	.	16AJJ	.
4dd	-les	4f	4B-	.
.	.	.	.	8A
=4	=4	=4	=4	=4
4ee-	Mass	8e-L	4B-	4G
.	.	8fJ	.	.
8ddL	sanft-	4g	4B-	4E-
8ccJ	.	.	.	.
2cc	-mÃ¼-	2f	4B-	4F
.	.	.	4A	4FF
=5	=5	=5	=5	=5
2b-;	-tig!	2f;	2d;	2BB-;
4dd	Ach	4f	4B-	4B-
4cc	wie	4f	4c	4A
=6	=6	=6	=6	=6
4dd	bist	4f	4c	8B-L
.	.	.	.	8AJ
4dd	du	4b-	4B-	8GL
.	.	.	.	8FJ
4cc	so	8b-L	8gL	8E-L
.	.	8aJ	8e-J	8CJ
4b-	zer-	4b-	4f	8DL
.	.	.	.	8BB-J
=7	=7	=7	=7	=7
4cc	-schmi-	4b-	4f	4F
4cc;	-ssen,	4a;	4f;	4FF;
4cc	und	4a	4f	4F
4dd	dein	4g	4f	4BBn
=8	=8	=8	=8	=8
4ee-	gan-	4g	8e-L	8CL
.	.	.	8dJ	8DJ
4ee-	-zer	4g	4c	8E-L
.	.	.	.	8FJ
4dd	Leib	8gL	4Bn	4G
.	.	8fJ	.	.
8ccL	zer-	4e-	4c	8A-L
8ddJ	.	.	.	8GJ
=9	=9	=9	=9	=9
2dd	-ris-	4a-	4c	4F
.	.	8gL	4Bn	4G
.	.	8fJ	.	.
2cc;	-sen!	2e-;	2G;	2C;
=10	=10	=10	=10	=10
4g	Lass	4e-	4c	4c
4a	mich	4d	4c	4F#
4b-	dei-	8dL	4B-	4G
.	.	8e-J	.	.
4b-	-ne	4f	4B-	4D
=11	=11	=11	=11	=11
4cc	Lieb'	4g	4B-	4E-
4cc	er-	4f	4A	4F
4dd	-er-	4f	4B-	4BB-
4dd;	-ben	4f;	4B-;	4BB-;
=12	=12	=12	=12	=12
4dd	und	4d	8AL	4FF#
.	.	.	8cJ	.
4dd	da-	4g	8cL	4GG
.	.	.	8B-J	.
4ee-	-rin-	(8g	8B-L	4C
.	.	4cc)	16A-L	.
.	.	.	16GJJ	.
4dd	-nen	.	4F	4D
.	.	8bn	.	.
=13	=13	=13	=13	=13
4cc	se-	8ccL	8GL	4E-
.	.	8f#J	8AJ	.
8b-L	-lig	4g	8B-L	8DL
8aJ	.	.	8e-J	8CJ
2a	ster-	4g	4.d	4D
.	.	4f#	.	4DD
.	.	.	8c	.
=14	=14	=14	=14	=14
1g;	-ben!	1d;	1Bn;	1GG;
==|!	==|!	==|!	==|!	==|!
*-	*-	*-	*-	*-
!!!RWG: Key is interpreted using the Humdrum key tool.
!!!END: 1994/07/29
!!!EMD: Converted from MuseData to Humdrum Dec 19, 2000, by Andreas Kornstaedt using muse2kern.
!!!EED: Craig Stuart Sapp
!!!EEV: 2024/03/31
!!!ONB: Some non-unicode characters
